svg/fluentui-system-icons/ic_fluent_brightness_low_32_regular.svg

<svg width="32" height="32" viewBox="0 0 32 32" fill="none" xmlns="http://www.w3.org/2000/svg">
<path d="M16.0003 4C16.5525 4 17.0003 4.44772 17.0003 5V7C17.0003 7.55228 16.5525 8 16.0003 8C15.448 8 15.0003 7.55228 15.0003 7V5C15.0003 4.44772 15.448 4 16.0003 4ZM16.0003 23C19.8662 23 23.0003 19.866 23.0003 16C23.0003 12.134 19.8662 9 16.0003 9C12.1343 9 9.00025 12.134 9.00025 16C9.00025 19.866 12.1343 23 16.0003 23ZM16.0003 21C13.2388 21 11.0003 18.7614 11.0003 16C11.0003 13.2386 13.2388 11 16.0003 11C18.7617 11 21.0003 13.2386 21.0003 16C21.0003 18.7614 18.7617 21 16.0003 21ZM27.0003 17C27.5525 17 28.0003 16.5523 28.0003 16C28.0003 15.4477 27.5525 15 27.0003 15H25.0003C24.448 15 24.0003 15.4477 24.0003 16C24.0003 16.5523 24.448 17 25.0003 17H27.0003ZM16.0003 24C16.5525 24 17.0003 24.4477 17.0003 25V27.0005C17.0003 27.5528 16.5525 28.0005 16.0003 28.0005C15.448 28.0005 15.0003 27.5528 15.0003 27.0005V25C15.0003 24.4477 15.448 24 16.0003 24ZM7.00025 17C7.55254 17 8.00025 16.5523 8.00025 16C8.00025 15.4477 7.55254 15 7.00025 15H5C4.44772 15 4 15.4477 4 16C4 16.5523 4.44772 17 5 17H7.00025ZM7.29314 7.29289C7.68367 6.90237 8.31683 6.90237 8.70736 7.29289L9.70736 8.29289C10.0979 8.68342 10.0979 9.31658 9.70736 9.70711C9.31683 10.0976 8.68367 10.0976 8.29314 9.70711L7.29314 8.70711C6.90262 8.31658 6.90262 7.68342 7.29314 7.29289ZM8.70736 24.7071C8.31683 25.0976 7.68367 25.0976 7.29314 24.7071C6.90262 24.3166 6.90262 23.6834 7.29314 23.2929L8.29314 22.2929C8.68367 21.9024 9.31683 21.9024 9.70736 22.2929C10.0979 22.6834 10.0979 23.3166 9.70736 23.7071L8.70736 24.7071ZM24.7074 7.29289C24.3168 6.90237 23.6837 6.90237 23.2931 7.29289L22.2931 8.29289C21.9026 8.68342 21.9026 9.31658 22.2931 9.70711C22.6837 10.0976 23.3168 10.0976 23.7074 9.70711L24.7074 8.70711C25.0979 8.31658 25.0979 7.68342 24.7074 7.29289ZM22.2931 23.7071L23.2931 24.7071C23.6837 25.0976 24.3168 25.0976 24.7074 24.7071C25.0979 24.3166 25.0979 23.6834 24.7074 23.2929L23.7074 22.2929C23.3168 21.9024 22.6837 21.9024 22.2931 22.2929C21.9026 22.6834 21.9026 23.3166 22.2931 23.7071Z" fill="#212121"/>
</svg>

<svg xmlns="http://www.w3.org/2000/svg" width="32" height="32"><path d="M16 4a1 1 0 0 1 1 1v2a1 1 0 0 1-2 0V5a1 1 0 0 1 1-1Zm0 19a7 7 0 1 0 0-14 7 7 0 0 0 0 14Zm0-2a5 5 0 1 1 0-10 5 5 0 0 1 0 10Zm11-4a1 1 0 0 0 0-2h-2a1 1 0 1 0 0 2h2Zm-11 7a1 1 0 0 1 1 1v2a1 1 0 0 1-2 0v-2a1 1 0 0 1 1-1Zm-9-7a1 1 0 1 0 0-2H5a1 1 0 1 0 0 2h2Zm.293-9.707a1 1 0 0 1 1.414 0l1 1a1 1 0 1 1-1.414 1.414l-1-1a1 1 0 0 1 0-1.414Zm1.414 17.414a1 1 0 0 1-1.414-1.414l1-1a1 1 0 0 1 1.414 1.414l-1 1Zm16-17.414a1 1 0 0 0-1.414 0l-1 1a1 1 0 0 0 1.414 1.414l1-1a1 1 0 0 0 0-1.414Zm-2.414 16.414 1 1a1 1 0 0 0 1.414-1.414l-1-1a1 1 0 0 0-1.414 1.414Z"/></svg>
